lib/logo_tmp/nrk-logo-nrk-trafikk.svg

<svg width="91" height="24" viewBox="0 0 91 24" fill="none" xmlns="http://www.w3.org/2000/svg">
<path d="M6.10352e-05 17.9969V5.99804H3.93725V17.9969H6.10352e-05ZM9.29387 7.90773L11.5581 17.9969H7.24923L4.54555 5.99804H6.96224C7.51641 5.99085 8.05412 6.1862 8.47456 6.54734C8.89568 6.89333 9.18501 7.37365 9.29387 7.90773ZM12.1496 17.9969V5.99804H16.0868V17.9969H12.1496ZM19.0605 10.561C18.6363 10.5652 18.2188 10.4542 17.8526 10.2399C17.4913 10.0311 17.1912 9.73091 16.9823 9.36955C16.7678 9.00328 16.6568 8.58571 16.661 8.16127C16.6562 7.73941 16.7673 7.32433 16.9823 6.96138C17.1934 6.60394 17.4932 6.30704 17.8526 6.09947C18.2189 5.88545 18.6363 5.77446 19.0605 5.77833C19.4823 5.77379 19.8972 5.88488 20.2603 6.09947C20.6161 6.30886 20.9127 6.60551 21.1221 6.96138C21.3369 7.32443 21.448 7.73944 21.4434 8.16127C21.4473 8.58568 21.3363 9.00318 21.1221 9.36955C20.9149 9.72932 20.618 10.0292 20.2603 10.2399C19.8972 10.4549 19.4819 10.566 19.06 10.561H19.0605ZM22.0517 17.9969V5.99804H25.9892V17.9969H22.0517ZM30.9738 12.5552C30.9849 12.5668 31.0693 12.7048 31.2272 12.9692C31.3851 13.2336 31.5907 13.5716 31.844 13.9832C32.0975 14.3947 32.3649 14.8312 32.6464 15.2929C32.9278 15.7547 33.1927 16.1913 33.4409 16.6027C33.6882 17.0141 33.9698 17.4789 34.2858 17.9969H29.9599C29.6893 17.5576 29.4442 17.1604 29.2245 16.8055C29.0049 16.4506 28.7714 16.0675 28.5239 15.6563C28.2759 15.2455 28.0307 14.8455 27.7883 14.4564C27.5459 14.0673 27.3376 13.7266 27.1633 13.434C26.9883 13.1413 26.8671 12.9441 26.7997 12.8425C26.6326 12.5904 26.5337 12.2992 26.5127 11.9975C26.5295 11.7079 26.6227 11.4279 26.7828 11.1861C26.8504 11.0734 26.9743 10.8734 27.1546 10.5861C27.3348 10.2988 27.5461 9.958 27.7883 9.56367C28.0305 9.16934 28.2757 8.76655 28.5239 8.35532C28.7721 7.94409 29.0056 7.55818 29.2245 7.19765C29.4446 6.8375 29.6897 6.43753 29.9599 5.99776H34.2858L30.9397 11.4564C30.8361 11.6185 30.7778 11.8053 30.7707 11.9975C30.7818 12.1993 30.8523 12.3933 30.9732 12.5552H30.9738Z" fill="white"/>
<path d="M46.6673 6.00446H37.1139V7.49129H41.0064V18.0004H42.7912V7.49129H46.667L46.6673 6.00446Z" fill="white"/>
<path d="M50.1521 9.3246C49.8343 9.40955 49.5307 9.54049 49.2512 9.7132C48.9612 9.8932 48.6932 10.1058 48.4523 10.3468C48.412 10.3868 48.3729 10.4313 48.3332 10.4733V9.21481L46.5994 9.46822V18.0006H48.3332V11.6174C48.462 11.5279 48.5954 11.4451 48.7327 11.3693C48.9026 11.276 49.0785 11.1941 49.2594 11.124C49.4353 11.0564 49.6136 10.9973 49.7952 10.9469C49.9817 10.8951 50.1721 10.8583 50.3646 10.8368C50.5706 10.8142 50.7781 10.8085 50.9851 10.8199L51.1891 9.23169C50.8406 9.20694 50.4905 9.23831 50.1521 9.3246Z" fill="white"/>
<path d="M59.9096 16.9359C59.7853 16.9473 59.6602 16.9286 59.5447 16.8816C59.4293 16.8345 59.327 16.7604 59.2466 16.6656C59.089 16.3948 59.0234 16.0808 59.0596 15.7701L59.0936 12.2896C59.0974 11.9247 59.0516 11.561 58.9576 11.2082C58.8751 10.8989 58.7369 10.6069 58.5497 10.3465C58.3605 10.0919 58.1203 9.87907 57.8442 9.72141C57.5235 9.54026 57.1766 9.40919 56.8158 9.3328C56.3746 9.23833 55.9241 9.19309 55.4728 9.19792C55.1149 9.19768 54.7573 9.22016 54.4022 9.26522C54.0666 9.30716 53.7342 9.3721 53.4075 9.45954C53.1047 9.54116 52.8068 9.63986 52.5153 9.7552L52.3111 11.1913C52.5944 11.09 52.8635 11.0055 53.1185 10.9379C53.3735 10.8703 53.62 10.814 53.8579 10.7689C54.0911 10.7245 54.3266 10.6936 54.5634 10.6763C54.7955 10.6592 55.0251 10.6507 55.2522 10.6507C55.5988 10.6433 55.9448 10.6831 56.2806 10.7689C56.5254 10.83 56.7506 10.9521 56.9348 11.1237C57.0987 11.2908 57.2159 11.4976 57.2747 11.7235C57.3475 12.0021 57.3819 12.2893 57.377 12.5771L57.375 12.9995L55.3879 13.1332C54.7083 13.1522 54.0388 13.3014 53.416 13.5725C52.95 13.7752 52.5477 14.0992 52.2516 14.5102C52.0003 14.876 51.8669 15.3091 51.8691 15.7521C51.8659 16.1676 51.9682 16.5773 52.1666 16.9432C52.3746 17.319 52.6874 17.6271 53.0675 17.8302C53.5312 18.07 54.0495 18.1864 54.5719 18.1681C55.0615 18.1793 55.5488 18.0991 56.0086 17.9316C56.406 17.777 56.7696 17.5476 57.0793 17.2558C57.1968 17.1437 57.3084 17.0255 57.4136 16.9018C57.4467 17.0767 57.5089 17.2448 57.5977 17.3994C57.7491 17.6581 57.9822 17.86 58.2607 17.9738C58.5685 18.0967 58.8979 18.157 59.2296 18.1512C59.3316 18.1512 59.4308 18.1484 59.5274 18.1428C59.6219 18.1374 59.7157 18.1232 59.8076 18.1005C59.8982 18.078 59.9801 18.0583 60.0541 18.0414C60.1206 18.0267 60.186 18.0069 60.2495 17.9823L60.4368 16.8503C60.3428 16.8822 60.2459 16.9048 60.1475 16.9179C60.0687 16.9288 59.9892 16.9348 59.9096 16.9359ZM57.3618 15.9095C57.2752 16.0061 57.1804 16.0951 57.0784 16.1756C56.8941 16.3203 56.6946 16.4449 56.4834 16.5473C56.2732 16.649 56.0503 16.7228 55.8207 16.7669C55.5827 16.8126 55.3408 16.8353 55.0983 16.8345C54.8212 16.8424 54.5456 16.7905 54.2906 16.6824C54.0832 16.593 53.9083 16.4427 53.7894 16.2516C53.6715 16.0491 53.6126 15.8181 53.6194 15.5842C53.603 15.3026 53.6807 15.0234 53.8404 14.7901C54.0254 14.5754 54.2762 14.427 54.5543 14.3677C54.9886 14.2662 55.4343 14.2207 55.8803 14.2326H57.3688L57.3618 15.9095Z" fill="white"/>
<path d="M66.3094 5.37939C66.1337 5.3456 65.9553 5.32025 65.7739 5.30336C65.5926 5.28646 65.4 5.27799 65.196 5.27799C64.8266 5.27563 64.4594 5.33272 64.1084 5.44697C63.7747 5.55605 63.4697 5.73789 63.2159 5.97919C62.9531 6.23335 62.75 6.54198 62.6209 6.8831C62.4706 7.29432 62.3986 7.72974 62.4085 8.16716V9.38367H61.1335V10.7015H62.4085V18.0005H64.1423V10.7015H66.5221V9.38367H64.1423V7.98133C64.1386 7.78858 64.1703 7.59677 64.2358 7.41532C64.2914 7.262 64.3814 7.12329 64.499 7.0098C64.6223 6.89728 64.7711 6.81613 64.9328 6.77327C65.1236 6.72069 65.321 6.69509 65.519 6.69724C65.6553 6.69724 65.785 6.70317 65.9102 6.71415C66.0354 6.72513 66.1564 6.74229 66.2757 6.76482C66.395 6.78735 66.5077 6.80987 66.6157 6.8324C66.7117 6.8514 66.8056 6.87971 66.8961 6.91689L66.8281 5.51455C66.6584 5.45825 66.4851 5.4131 66.3094 5.37939Z" fill="white"/>
<path d="M68.2046 18.0006H69.9385V9.21481L68.2046 9.46822V18.0006Z" fill="white"/>
<path d="M69.6921 5.67491C69.5156 5.56776 69.3123 5.51215 69.1056 5.51442C68.8962 5.51275 68.6904 5.56825 68.5106 5.67491C68.3333 5.77812 68.1844 5.92321 68.0771 6.09731C67.9691 6.27263 67.9132 6.47469 67.9157 6.68023C67.9138 6.88834 67.9697 7.09293 68.0771 7.27157C68.1811 7.4483 68.3307 7.59414 68.5106 7.69396C68.6921 7.79546 68.8973 7.84787 69.1056 7.846C69.3112 7.84843 69.5138 7.79594 69.6921 7.69396C69.8669 7.59338 70.0109 7.44736 70.1085 7.27157C70.2106 7.09113 70.2634 6.88724 70.2615 6.68023C70.264 6.47581 70.2111 6.27447 70.1085 6.09731C70.0075 5.92403 69.8643 5.77878 69.6921 5.67491Z" fill="white"/>
<path d="M79.9848 9.38361H77.86L74.9512 12.56H74.3242V5.24414L72.5903 5.49758V18.0004H74.3242V13.861H74.3525L77.8257 18.0004H80.0695L75.9462 13.3822L79.9848 9.38361Z" fill="white"/>
<path d="M88.9085 9.38361H86.7836L83.8749 12.56H83.2478V5.24414L81.514 5.49758V18.0004H83.2478V13.861H83.2762L86.7494 18.0004H88.9932L84.8699 13.3822L88.9085 9.38361Z" fill="white"/>
</svg>

<svg xmlns="http://www.w3.org/2000/svg" viewBox="0 0 91 24"><path fill="#fff" d="M0 17.997V5.998h3.937v11.999H0Zm9.294-10.09 2.264 10.09H7.25L4.546 5.998h2.416a2.276 2.276 0 0 1 1.513.55c.42.345.71.826.819 1.36Zm2.856 10.09V5.998h3.937v11.999H12.15Zm6.91-7.436a2.382 2.382 0 0 1-2.4-2.4 2.303 2.303 0 0 1 .322-1.2A2.411 2.411 0 0 1 20.26 6.1c.356.21.653.507.862.862.215.363.326.778.321 1.2a2.4 2.4 0 0 1-1.183 2.079 2.303 2.303 0 0 1-1.2.321Zm2.992 7.436V5.998h3.937v11.999h-3.937Zm8.922-5.442c.01.012.095.15.253.414.158.265.364.603.617 1.014a334.427 334.427 0 0 1 1.597 2.62c.247.411.529.876.845 1.394H29.96c-.27-.44-.516-.837-.736-1.192-.22-.354-.453-.738-.7-1.149-.248-.41-.493-.81-.736-1.2-.242-.389-.45-.73-.625-1.022a18.04 18.04 0 0 0-.363-.591 1.75 1.75 0 0 1-.287-.845c.016-.29.11-.57.27-.812.067-.113.191-.313.372-.6a182.106 182.106 0 0 0 1.37-2.23c.247-.412.48-.798.7-1.158l.735-1.2h4.326l-3.346 5.458a1.079 1.079 0 0 0-.17.542c.012.201.082.395.203.557ZM46.667 6.004h-9.553v1.487h3.892v10.51h1.785V7.49h3.876V6.004ZM50.152 9.325a3.37 3.37 0 0 0-.9.388 4.44 4.44 0 0 0-.8.634c-.04.04-.08.084-.119.126V9.215l-1.734.253v8.533h1.734v-6.384a4.388 4.388 0 0 1 .926-.493c.176-.068.355-.127.536-.177a3.635 3.635 0 0 1 1.19-.127l.204-1.588a3.262 3.262 0 0 0-1.037.093ZM59.91 16.936a.78.78 0 0 1-.663-.27 1.447 1.447 0 0 1-.187-.896l.034-3.48a4.037 4.037 0 0 0-.136-1.082 2.644 2.644 0 0 0-.408-.861 2.3 2.3 0 0 0-.706-.626 3.613 3.613 0 0 0-1.028-.388 6.103 6.103 0 0 0-1.343-.135 8.46 8.46 0 0 0-1.07.067 7.394 7.394 0 0 0-.995.195c-.303.081-.601.18-.893.295l-.204 1.436a10.074 10.074 0 0 1 1.547-.422c.233-.044.469-.075.705-.093.232-.017.462-.025.69-.025.346-.008.692.032 1.028.118.244.061.47.183.654.355.164.167.28.374.34.6.072.278.107.565.102.853l-.002.422-1.987.134c-.68.02-1.35.168-1.972.44a2.822 2.822 0 0 0-1.164.937 2.174 2.174 0 0 0-.383 1.242c-.003.416.1.825.298 1.191.208.376.52.684.9.887.464.24.983.356 1.505.338.49.011.977-.069 1.437-.236a3.312 3.312 0 0 0 1.07-.676c.118-.112.23-.23.335-.354.033.175.095.343.184.497.151.26.384.461.663.575.307.123.637.183.969.177.102 0 .2-.003.297-.008.095-.006.189-.02.28-.043l.247-.059c.067-.014.132-.034.195-.059l.188-1.132c-.094.032-.191.055-.29.068-.078.01-.158.017-.237.018Zm-2.548-1.027a2.265 2.265 0 0 1-.284.267c-.184.144-.383.269-.595.371-.21.102-.433.176-.662.22-.238.046-.48.068-.723.067a1.929 1.929 0 0 1-.807-.152 1.105 1.105 0 0 1-.502-.43 1.254 1.254 0 0 1-.17-.668c-.016-.281.062-.56.221-.794a1.3 1.3 0 0 1 .714-.422c.435-.102.88-.147 1.326-.135h1.489l-.007 1.676ZM66.31 5.38a5.565 5.565 0 0 0-1.114-.102 3.443 3.443 0 0 0-1.088.169c-.333.109-.638.29-.892.532a2.477 2.477 0 0 0-.595.904c-.15.411-.222.847-.213 1.284v1.217h-1.275V10.7h1.275v7.3h1.734v-7.3h2.38V9.384h-2.38V7.98a1.578 1.578 0 0 1 .094-.566c.055-.153.145-.292.263-.405.123-.113.272-.194.434-.237a2.12 2.12 0 0 1 .586-.076c.136 0 .266.006.391.017.125.011.246.028.366.05l.34.068c.096.02.19.048.28.085l-.068-1.402a4.102 4.102 0 0 0-.519-.136ZM68.205 18h1.734V9.216l-1.734.253v8.533ZM69.692 5.675a1.107 1.107 0 0 0-.586-.16 1.148 1.148 0 0 0-.595.16 1.244 1.244 0 0 0-.434.422 1.086 1.086 0 0 0-.161.583 1.15 1.15 0 0 0 .595 1.014c.181.101.386.154.595.152.205.002.408-.05.586-.152.175-.1.319-.247.417-.422.102-.18.154-.385.153-.592a1.135 1.135 0 0 0-.153-.583 1.198 1.198 0 0 0-.417-.422ZM79.985 9.384H77.86l-2.909 3.176h-.627V5.244l-1.734.254V18h1.734v-4.139h.029l3.473 4.14h2.244l-4.124-4.619 4.039-3.998ZM88.909 9.384h-2.125l-2.91 3.176h-.626V5.244l-1.734.254V18h1.734v-4.139h.028l3.473 4.14h2.244l-4.123-4.619 4.038-3.998Z"/></svg>
